X: 2193
T: Dutchess Slipper    Strathspey
%R: strathspey
B: Niel Gow & Sons "A Second Collection of Strathspey Reels, etc." v.2 p.19 #3
Z: 2022 John Chambers <jc:trillian.mit.edu>
M: C
L: 1/8
K: F
% - - - - - - - - - -
V: 1 staves=2
|:\
(CF)AF c<FA<F | (CF)AF D<GTG2 | (CF)AF cFA<f | {d}Tc>BAG F<FTF2 :| c<fTf2 cfaf | Tgfaf dgTg2 |
c<fTf2 cfaf | Tgfaf cfTf2 || c<fTf2 cfaf | Tgfaf dgTg2 | f<ad<f c<fA<f | {d}Tc>BAG F<FTF2 |]
% - - - - - - - - - -
% Voice 2 preserves the staff layout in the book.
V: 2 clef=bass middle=d
|:\
f2f2 f2f2 | f2f2 g2g2 | f2f2 a2f2 | c'2c2 f2f2 :| f2f2 f2f2 | f2f2 g2g2 |
f2f2 f2f2 | c'2c2 f2f2 || f2f2 f2f2 | f2f2 g2g2 | f2b2 a2f2 | c'2c2 f2f2 |]
